X:436
T: Lang gan shengchan bi ren qiang
N: C2054
O: China,Anhui Dingyuan
S: III, 549]
R: Xiaodiao]
M: 2/4
L: 1/16
K: C
A2A2A2A2 | A2A2c2cc | E2A2G4 |
c2c2E2E2 | G8 |
A2A2d2A2 | G8 |
c2c2E2A2 | G8 |
G2E2G2A2 | c2c4A2 | d2d4e2 | c2A2G2E2 | D2CDE2D2 | C8

@@@ Tune index: 6991
